!!!SOCIAL_FUNCTION:	bird dance songs
!!!PDT:	1956
!!!OTL: No_95_Chicken_Dance_Song_(d).krn
!!!LANG: Non-Tone
!!!LING_GROUP: Muskogean
!!!REG: Florida
**kern
*staff1
=1-
*clefF4
*k[b-]
*M2/4
4r
8.r
16d\
=2!|:
8.c\L
16d\Jk
8.d\L
16c\Jk
=3||
*M3/4
4.c\
8c\
16c\LL
16.B-\
32A\JJk
32r
32c\
=4
8.c\L
16B-\Jk
8.A\L
16F\Jk
12F\L
12F\
12F\J
=5||
*M2/4
8.F\L
16F\Jk
8.F\L
16F\Jk
=6
4F\
8r
16F\LL
16F\JJ
=7||
*M3/4
4F\
8r
8F\
4F\
=8
12A\L
12F\
12F\J
8.F\L
16A\Jk
4A\
=9||
*M2/4
8.F\L
16F\Jk
16F\LL
16F\
16D\
16F\JJ
=10||
*M5/8
8.F\L
16F\Jk
4F\
16c\LL
16c\JJ
=11:|!
*M2/4
8.c\L
16d\Jk
8.d\L
16c\Jk
=12||
*M3/4
4.c\
8c\
16c\LL
16B-\
16A\JJ
32r
32c\
=13
8.c\L
16B-\Jk
8.A\L
16F\Jk
12F\L
12F\
12F\J
=14
8.F\L
16F\Jk
8.F\L
16F\Jk
4F\
==
*-
